X:8507
T:Kesh
M:6/8
L:1/8
K:G Major
D|G3 GAB|A3 ABd|edd gdd|edB dBA|!
G3 GAB|A3 ABd|edd gdB|AGF G2:|!
A|BAB dBd|ege dBA|BAB dAG|ABA AGA|!
BAB dBd|ege dBd|gfg aga|bgf g2:|!
